X: 139
T: Cantantibus organis – Maestoso
C: Franciszek Walczyński
%%abc-version 2.0
%%abcx-abcm2ps-target-version 5.9.1 (29 Sep 2008)
%%abc-creator hum2abc beta
%%abcx-conversion-date 2021/10/04 07:38:40
%%abc-edited-by Kamil Watkowski
%%abcx-initial-encoding-date 2021-08-09
%%humdrum-veritas 3765113556
%%humdrum-veritas-data 1534366122
%%linebreak <none>
%%barnumbers 0
L: 1/8
M: C
N: Derived from pl-kozmzk--mzk-m-346--041_walczynski-franciszek--cantantibus-organis-maestoso.krn
%%staves {1 2}
V: 1 clef=treble
V: 2 clef=bass
K: Bb
[V:1] z8 & z8 | 
[V:2] G,,D,G,A, B,DB,A, | 
[V:1] B2c2!accent!A4 & D2G2^F4 | 
[V:2] G,2E,2D,4 | 
[V:1] z8 & z8 | 
[V:2] D,,A,,D,=E, ^F,A,F,E, | 
[V:1] A2B2G4 & C4B,4 | 
[V:2] D,4G,,4 | 
[V:1] z8 & z8 | 
[V:2] G,,D,G,A, B,DGF | 
[V:1] c2d2!accent!e4 & G8 | 
[V:2] E2=B,2C4 | 
[V:1] d2>c2 B=Bc_B & ^F2G2-G4 | 
[V:2] DCB,A, G,F,E,D, | 
[V:1] A2^F2!fermata!G4 & E2DCB,4 | 
[V:2] C,2D,2!fermata!E,4 | 
[V:1] z8 & z8 | 
[V:2] E,,B,,E,F, G,=A,B,G, | 
[V:1] !fermata![G8B8] | 
[V:2] =E2D2!accent!^C4 | 
[V:1] z8 & z8 | 
[V:2] G,,D,G,A, B,DB,A, | 
[V:1] .E2.C2!accent!D4 & C2A,2B,4 | 
[V:2] G,2G,2G,4 | 
[V:1] z8 & z8 | 
[V:2] .G,.F,.E,.D, .C,.B,,.A,,.D, | 
[V:1] [D,2B,2][C,2A,2]!fermata![B,,4G,4] |]  
[V:2] !fermata!G,,8 |]  


